X:142
T: Fhnderich (2-44) S. 140
N: P0917
O: Lothringen
S: PINCK, Louis: Verklingende Weisen, Bd 2, Metz 1928]
R: Beischlaf, verlorene Ehre]
M: 2/4
L: 1/16
K: G
D2 | G3GG2GG | G4A3d | B4A2G2 | A4
d3c | B4B2B2 | B3dc2B2 | A3dd2d2 | d4
d3c | B3BB2B2 | B3dc2B2 | A2d2d2d2 | d4z2
G2 | A4A4 | d3cB2A2 | B4A4 | G4z2

